X:125
T:Of My Love I Was Thinking
N:"Cheerful" "collected by J. O'Neill"
B:O'Neill's 125
Z:Transcribed by henrik.norbeck@mailbox.swipnet.se
M:6/8
L:1/8
K:G
B/c/|ded dBG|gba .g2 .d|efg dBG|A3- A2 B/c/|
ded dBG|gba g2 g/e/|.d.B.G .F.G.A|G3- G2||
B|Beg agfe|fcd .B2 .B|bc'b afag|e3- e2 g/a/|
.b.a.b .a.e.f|gba g2 g/e/|.d.B.G .F.G.A|G3- G2||
